communes/5129.svg

<?xml version="1.0" encoding="UTF-8"?>
<svg version="1.0" viewBox="0 0 603 763" xmlns="http://www.w3.org/2000/svg" xmlns:cc="http://creativecommons.org/ns#" xmlns:dc="http://purl.org/dc/elements/1.1/" xmlns:rdf="http://www.w3.org/1999/02/22-rdf-syntax-ns#" xmlns:xlink="http://www.w3.org/1999/xlink">
<metadata>
<rdf:RDF>
<cc:Work rdf:about="">
<dc:format>image/svg+xml</dc:format>
<dc:type rdf:resource="http://purl.org/dc/dcmitype/StillImage"/>
<dc:date>07-AUG-2006</dc:date>
<dc:creator>
<cc:Agent>
<dc:title>Jérôme BLUM (wagner51)</dc:title>
</cc:Agent>
</dc:creator>
<cc:license rdf:resource="http://creativecommons.org/licenses/GPL/2.0/"/>
<dc:coverage/>
<dc:description>Gabarit pour le Projet:Blasons de WIkipédia</dc:description>
<dc:subject>
<rdf:Bag>
<rdf:li>blason suisse modèle gabarit projet blasons</rdf:li>
</rdf:Bag>
</dc:subject>
<dc:language>fr</dc:language>
<dc:title>Gabrit d'un blason suisse</dc:title>
</cc:Work>
<cc:License rdf:about="http://creativecommons.org/licenses/GPL/2.0/">
<cc:permits rdf:resource="http://web.resource.org/cc/Reproduction"/>
<cc:permits rdf:resource="http://web.resource.org/cc/Distribution"/>
<cc:requires rdf:resource="http://web.resource.org/cc/Notice"/>
<cc:permits rdf:resource="http://web.resource.org/cc/DerivativeWorks"/>
<cc:requires rdf:resource="http://web.resource.org/cc/ShareAlike"/>
<cc:requires rdf:resource="http://web.resource.org/cc/SourceCode"/>
</cc:License>
</rdf:RDF>
</metadata>
<defs>
<radialGradient id="a" cx="858.04" cy="579.93" r="300" gradientTransform="matrix(1.215 1.5316e-24 1.4647e-23 1.2667 -839.19 -490.49)" gradientUnits="userSpaceOnUse">
<stop stop-color="#fff" stop-opacity=".31373" offset="0"/>
<stop stop-color="#fff" stop-opacity=".25098" offset=".19"/>
<stop stop-color="#6b6b6b" stop-opacity=".12549" offset=".6"/>
<stop stop-opacity=".12549" offset="1"/>
</radialGradient>
</defs>
<desc>Coat of Arms of Canton of Freiburg (Fribourg)</desc>
<g>
<path d="m1.5 1.5v458.87c0 166.31 134.31 301.13 300 301.13s300-134.82 300-301.13v-458.87h-600z" fill="#fff"/>
<polygon points="418.56 565.06 470.95 553.84 487.43 604.82 503.91 553.85 556.3 565.06 520.38 525.3 556.3 485.54 503.91 496.76 487.43 445.78 470.95 496.76 418.56 485.54 454.47 525.3" fill="#2b5df2" stroke="#000" stroke-linecap="round" stroke-linejoin="round" stroke-width="2.75"/>
<polygon points="232.63 669.18 285.02 657.96 301.5 708.94 317.98 657.96 370.37 669.18 334.46 629.42 370.37 589.66 317.98 600.87 301.5 549.9 285.02 600.87 232.63 589.66 268.54 629.42" fill="#2b5df2" stroke="#000" stroke-linecap="round" stroke-linejoin="round" stroke-width="2.75"/>
<polygon points="148.53 525.3 184.44 485.54 132.05 496.76 115.57 445.78 99.094 496.76 46.703 485.54 82.615 525.3 46.703 565.06 99.094 553.85 115.57 604.82 132.05 553.84 184.44 565.06" fill="#2b5df2" stroke="#000" stroke-linecap="round" stroke-linejoin="round" stroke-width="2.75"/>
<path d="m327 307.86s7.625 17.754 20.435 24.795 10.369 18.06 5.795 26.019c-4.575 7.959-23.484 62.14-49.104 77.139 0 0-22.458 6.74-14.945 27.855 1.525 4.286 16.536 4.786 26.839-16.836 3.354-7.04 11.284-6.734 13.42-4.591 0 0 2.73-33.658 55.508-86.628 5.032-5.051 16.013-16.07 16.013-16.07l-22.417-52.192-51.544 20.509z" stroke="#fff" stroke-linecap="round" stroke-linejoin="round" stroke-width="2.25"/>
<path d="m204.9 317.96s-5.236 32.6 0 74.689c0.599 4.815 2.084 22.193 1.017 41.019 0 0-21.711 21.765-13.725 34.59 2.288 3.674 21.654-4.897 21.654-18.213 0-7.194 4.422-9.796 6.558-9.796 0 0-2.288-31.272 0.152-44.946 2.44-13.673 1.22-35.406 7.93-69.69l-23.586-7.653z" stroke="#fff" stroke-linecap="round" stroke-linejoin="round" stroke-width="2.25"/>
<path d="m431.2 346.94s-3.254 1.225-7.727-5.306c-4.472-6.529-4.27-26.938-4.27-30.61s10.37-10.408 10.37-23.468c0-21.428-25.01-37.957-36.396-42.651-11.388-4.694-27.246-2.857-42.699-2.041-31.496 1.664-58.354-1.226-69.131-9.592-10.776-8.366-9.353-27.346-7.727-51.834s-6.506-36.732-6.506-36.732c9.455-9.49 17.181-22.143 15.046-24.285-2.135-2.143-10.98 5.306-14.64 8.979s-6.71 4.285-6.71 4.285c-3.928-5.615-7.607-9.016-11.01-11.024-9.043-38.237 12.23-58.155 12.23-58.155-29.181 6.194-22.604 55.465-22.593 55.542-1.205 0.052-2.351 0.197-3.433 0.373-2.19 0.354-3.688-0.106-4.981-0.659-6.024-41.158 14.233-58.01 14.233-58.01-30.957 6.275-22.467 58.67-22.467 58.67-4.628 3.446-7.759 6.921-10.605 10.556-1.191-14.045-6.609-25.656-7.694-25.656-1.221 0-6.71 2.653-6.71 14.693 0 8.662 7.157 13.31 11.172 15.236-3.062 4.129-6.33 8.514-11.375 13.333-9.598 9.167-11.034 9.237-17.893 11.224-6.003 1.739-8.048 4.091-5.897 10.203 3.05 8.667 15.043-5.717 17.486 2.245 2.077 6.77-12.268 4.217-13.488 7.891-1.22 3.673 4.746 7.619 18.978 7.619s18.909-2.041 18.909-2.041 3.863 22.856-10.167 45.916c-14.03 23.061-10.208 44.372-10.208 44.372-0.866 1.638-1.6 3.477-2.195 5.626-5.008 18.095 2.948 36.835 11.793 43.875 7.838 6.239 26.636 7.602 26.636 7.602-1.22 8.571-1.677 29.232-1.677 45.304 0 9.03 1.067 18.06 3.05 21.733 3.157 5.85 1.067 38.313 1.067 38.313s-6.709 5-10.166 15.203c-3.456 10.203-2.846 20 2.643 20 8.54 0 16.063-11.632 16.063-21.224 0-9.593 5.795-11.734 5.795-11.734-6.405-22.957 7.421-104.79 9.048-108.26 1.626-3.47 9.149-2.041 20.739-5.509 18.952-5.673 54.289-18.572 75.435-23.061 16.889-3.585 24.399 1.633 31.516 16.53 13.368 27.986 26.839 42.039 31.313 49.385 4.474 7.347 2.44 47.549 2.44 59.793s-11.183 20.61-14.437 23.876c-3.253 3.266-10.369 18.162-0.407 18.162 9.963 0 19.52-9.999 20.741-19.388s9.758-9.794 9.758-9.794c-5.895-5.917-3.252-95.506-3.252-95.506z" stroke="#fff" stroke-linecap="round" stroke-linejoin="round" stroke-width="2.25"/>
<path d="m195.3 276.01c3.573-6.757 9.389-10.082 16.917-17.638" fill="none" stroke="#fff" stroke-linecap="round" stroke-linejoin="round" stroke-width="2.25"/>
<path d="m226.45 183.89s14.538-3.367 21.35-17.346c0 0 1.238-2.365 3.039-1.177 0.766 0.505 1.154 2.003-0.396 6.688-1.763 5.328-2.237 15.305-16.47 15.305-4.066 0-10.355-2.795-7.523-3.47z" fill="#fff"/>
<path d="m217.91 146.75s3.457-9.388 15.046-2.245c1e-3 0-4.131 11.125-15.046 2.245z" fill="#fff"/>
<path d="m358.24 303.1c0.066 0.219 1.809 5.829 7.641 5.829 5.726 0 7.931-2.857 8.087-3.07-4.116-2.667-9.116-3.563-15.728-2.759z" fill="none" stroke="#fff" stroke-linecap="round" stroke-linejoin="round" stroke-width="2.25"/>
<path d="m358.24 303.1c-1.447 0.177-3.098 0.436-4.712 0.778-3.863 0.82-8.205 1.924-12.831 3.21 0.243-0.044 12.479-2.26 19.482-0.677-1.375-1.523-1.903-3.194-1.939-3.311z" fill="none" stroke="#fff" stroke-linecap="round" stroke-linejoin="round" stroke-width="2.25"/>
<path d="m410.56 457.54s-7.165 4.803-8.92 13.727" fill="none" stroke="#fff" stroke-linecap="round" stroke-linejoin="round" stroke-width="2.25"/>
<path d="m299.14 449.69s-8.086 6.687-8.943 15.259" fill="none" stroke="#fff" stroke-linecap="round" stroke-linejoin="round" stroke-width="2.25"/>
<path d="m229.7 459.38s-3.253 5-3.253 14.285" fill="none" stroke="#fff" stroke-linecap="round" stroke-linejoin="round" stroke-width="2.25"/>
<path d="m199.23 455.28s-4.204 5.565-4.204 13.803" fill="none" stroke="#fff" stroke-linecap="round" stroke-linejoin="round" stroke-width="2.25"/>
</g>
<g>
<path d="m1.5 1.5v458.87c0 166.31 134.31 301.13 300 301.13 165.69 0 300-134.82 300-301.13v-458.87h-600z" fill="url(#a)"/>
<path d="m1.5 1.5v458.87c0 166.31 134.31 301.13 300 301.13 165.69 0 300-134.82 300-301.13v-458.87h-600z" fill="none" stroke="#000" stroke-width="3"/>
</g>
</svg>

<?xml version="1.0" encoding="UTF-8" standalone="no"?>
<svg
   xmlns:dc="http://purl.org/dc/elements/1.1/"
   xmlns:cc="http://creativecommons.org/ns#"
   xmlns:rdf="http://www.w3.org/1999/02/22-rdf-syntax-ns#"
   xmlns:svg="http://www.w3.org/2000/svg"
   xmlns="http://www.w3.org/2000/svg"
   xmlns:xlink="http://www.w3.org/1999/xlink"
   xmlns:sodipodi="http://sodipodi.sourceforge.net/DTD/sodipodi-0.dtd"
   xmlns:inkscape="http://www.inkscape.org/namespaces/inkscape"
   height="763"
   width="603"
   version="1.0"
   id="svg20"
   sodipodi:version="0.32"
   inkscape:version="0.46"
   sodipodi:docname="Sonogno-coat_of_arms.svg"
   sodipodi:docbase="C:\Documents and Settings\Steve\Bureau\Blason Villages Suisse pour Wikipédia (par Delta-9)"
   inkscape:output_extension="org.inkscape.output.svg.inkscape">
  <metadata
     id="metadata31">
    <rdf:RDF>
      <cc:Work
         rdf:about="">
        <dc:format>image/svg+xml</dc:format>
        <dc:type
           rdf:resource="http://purl.org/dc/dcmitype/StillImage" />
        <dc:date>07-AUG-2006</dc:date>
        <dc:creator>
          <cc:Agent>
            <dc:title>Jérôme BLUM (wagner51)</dc:title>
          </cc:Agent>
        </dc:creator>
        <cc:license
           rdf:resource="http://creativecommons.org/licenses/GPL/2.0/" />
        <dc:coverage />
        <dc:description>Gabarit pour le Projet:Blasons de WIkipédia</dc:description>
        <dc:subject>
          <rdf:Bag>
            <rdf:li>blason suisse modèle gabarit projet blasons</rdf:li>
          </rdf:Bag>
        </dc:subject>
        <dc:language>fr</dc:language>
        <dc:title>Gabrit d'un blason suisse</dc:title>
      </cc:Work>
      <cc:License
         rdf:about="http://creativecommons.org/licenses/GPL/2.0/">
        <cc:permits
           rdf:resource="http://web.resource.org/cc/Reproduction" />
        <cc:permits
           rdf:resource="http://web.resource.org/cc/Distribution" />
        <cc:requires
           rdf:resource="http://web.resource.org/cc/Notice" />
        <cc:permits
           rdf:resource="http://web.resource.org/cc/DerivativeWorks" />
        <cc:requires
           rdf:resource="http://web.resource.org/cc/ShareAlike" />
        <cc:requires
           rdf:resource="http://web.resource.org/cc/SourceCode" />
      </cc:License>
    </rdf:RDF>
  </metadata>
  <defs
     id="defs29"><inkscape:perspective
   sodipodi:type="inkscape:persp3d"
   inkscape:vp_x="0 : 381.5 : 1"
   inkscape:vp_y="0 : 1000 : 0"
   inkscape:vp_z="603 : 381.5 : 1"
   inkscape:persp3d-origin="301.5 : 254.33333 : 1"
   id="perspective28" />
<linearGradient
   id="linearGradient2893">
  <stop
     style="stop-color:#ffffff;stop-opacity:0.3137255;"
     offset="0"
     id="stop2895" />
  <stop
     id="stop2897"
     offset="0.19"
     style="stop-color:#ffffff;stop-opacity:0.25098041;" />
  <stop
     style="stop-color:#6b6b6b;stop-opacity:0.1254902;"
     offset="0.60000002"
     id="stop2901" />
  <stop
     style="stop-color:#000000;stop-opacity:0.1254902;"
     offset="1"
     id="stop2899" />
</linearGradient>
<linearGradient
   id="linearGradient2955">
  <stop
     style="stop-color:white;stop-opacity:0;"
     offset="0"
     id="stop2965" />
  <stop
     style="stop-color:black;stop-opacity:0.64583331;"
     offset="1"
     id="stop2959" />
</linearGradient>
<radialGradient
   inkscape:collect="always"
   xlink:href="#linearGradient2893"
   id="radialGradient3236"
   gradientUnits="userSpaceOnUse"
   gradientTransform="matrix(1.215027,1.531577e-24,1.464684e-23,1.266667,-839.1924,-490.4894)"
   cx="858.04236"
   cy="579.93323"
   fx="858.04236"
   fy="579.93323"
   r="300" />
<inkscape:perspective
   id="perspective2540"
   inkscape:persp3d-origin="306 : 264 : 1"
   inkscape:vp_z="612 : 396 : 1"
   inkscape:vp_y="0 : 1000 : 0"
   inkscape:vp_x="0 : 396 : 1"
   sodipodi:type="inkscape:persp3d" />

	
	

	

		
		
		
		
		
		
		
		
		
		
		
		
	
		
			
		
			
		
			
	</defs>
  <sodipodi:namedview
     inkscape:window-height="691"
     inkscape:window-width="939"
     inkscape:pageshadow="2"
     inkscape:pageopacity="0.0"
     guidetolerance="10.0"
     gridtolerance="10.0"
     objecttolerance="10.0"
     borderopacity="1.0"
     bordercolor="#666666"
     pagecolor="#ffffff"
     id="base"
     inkscape:zoom="0.46287033"
     inkscape:cx="343.77193"
     inkscape:cy="375.75071"
     inkscape:window-x="1343"
     inkscape:window-y="128"
     inkscape:current-layer="layer2"
     showgrid="false"
     showguides="true"
     inkscape:guide-bbox="true">
    <sodipodi:guide
       orientation="horizontal"
       position="761.5"
       id="guide1885" />
    <sodipodi:guide
       orientation="vertical"
       position="1.5"
       id="guide1887" />
    <sodipodi:guide
       orientation="horizontal"
       position="1.5"
       id="guide1889" />
    <sodipodi:guide
       orientation="vertical"
       position="601.5"
       id="guide1891" />
    <sodipodi:guide
       orientation="vertical"
       position="301.50081"
       id="guide1893" />
  </sodipodi:namedview>
  <desc
     id="desc22">Coat of Arms of Canton of Freiburg (Fribourg)</desc>
  <g
     inkscape:groupmode="layer"
     id="layer1"
     inkscape:label="Fond écu"
     style="opacity:1"
     sodipodi:insensitive="true">
    <path
       d="M 1.5,1.5 L 1.5,460.368 C 1.5,626.679 135.814,761.5 301.5,761.5 C 467.186,761.5 601.5,626.679 601.5,460.368 L 601.5,1.5 L 1.5,1.5 z"
       id="path2547"
       style="opacity:1;fill:#ffffff" />
  </g>
  <g
     inkscape:groupmode="layer"
     id="layer2"
     inkscape:label="Meubles"
     style="opacity:1"
     sodipodi:insensitive="true">
    <polygon
       style="fill:#2b5df2;stroke:#000000;stroke-width:2.75;stroke-linecap:round;stroke-linejoin:round"
       id="polygon1963_15_"
       points="418.562,565.063 470.95,553.844 487.428,604.824 503.906,553.846 556.297,565.063 520.385,525.303 556.297,485.542 503.906,496.761 487.428,445.782 470.95,496.761 418.562,485.542 454.47,525.303 418.562,565.063 " />
    <polygon
       style="fill:#2b5df2;stroke:#000000;stroke-width:2.75;stroke-linecap:round;stroke-linejoin:round"
       id="polygon1963_1_"
       points="232.633,669.177 285.022,657.957 301.5,708.938 317.978,657.959 370.369,669.177 334.457,629.416 370.369,589.656 317.978,600.874 301.5,549.896 285.022,600.874 232.633,589.656 268.541,629.416 232.633,669.177 " />
    <polygon
       style="fill:#2b5df2;stroke:#000000;stroke-width:2.75;stroke-linecap:round;stroke-linejoin:round"
       id="polygon1963_2_"
       points="148.531,525.303 184.438,485.542 132.05,496.761 115.572,445.782 99.094,496.761 46.703,485.542 82.615,525.303 46.703,565.063 99.094,553.846 115.572,604.824 132.05,553.844 184.438,565.063 148.531,525.303 " />
    <path
       style="stroke:#ffffff;stroke-width:2.25;stroke-linecap:round;stroke-linejoin:round"
       d="M 326.995,307.859 C 326.995,307.859 334.62,325.613 347.43,332.654 C 360.24,339.695 357.799,350.714 353.225,358.673 C 348.65,366.632 329.741,420.813 304.121,435.812 C 304.121,435.812 281.663,442.552 289.176,463.667 C 290.701,467.953 305.712,468.453 316.015,446.831 C 319.369,439.791 327.299,440.097 329.435,442.24 C 329.435,442.24 332.165,408.582 384.943,355.612 C 389.975,350.561 400.956,339.542 400.956,339.542 L 378.539,287.35 L 326.995,307.859 z"
       id="path2511" />
    <path
       style="stroke:#ffffff;stroke-width:2.25;stroke-linecap:round;stroke-linejoin:round"
       d="M 204.897,317.961 C 204.897,317.961 199.661,350.561 204.897,392.65 C 205.496,397.465 206.981,414.843 205.914,433.669 C 205.914,433.669 184.203,455.434 192.189,468.259 C 194.477,471.933 213.843,463.362 213.843,450.046 C 213.843,442.852 218.265,440.25 220.401,440.25 C 220.401,440.25 218.113,408.978 220.553,395.304 C 222.993,381.631 221.773,359.898 228.483,325.614 L 204.897,317.961 z"
       id="path2513" />
    <path
       style="stroke:#ffffff;stroke-width:2.25;stroke-linecap:round;stroke-linejoin:round"
       d="M 431.201,346.938 C 431.201,346.938 427.947,348.163 423.474,341.632 C 419.002,335.103 419.204,314.694 419.204,311.022 C 419.204,307.35 429.574,300.614 429.574,287.554 C 429.574,266.126 404.564,249.597 393.178,244.903 C 381.79,240.209 365.932,242.046 350.479,242.862 C 318.983,244.526 292.125,241.636 281.348,233.27 C 270.572,224.904 271.995,205.924 273.621,181.436 C 275.247,156.948 267.115,144.704 267.115,144.704 C 276.57,135.214 284.296,122.561 282.161,120.419 C 280.026,118.276 271.181,125.725 267.521,129.398 C 263.861,133.071 260.811,133.683 260.811,133.683 C 256.883,128.068 253.204,124.667 249.801,122.659 C 240.758,84.422 262.031,64.504 262.031,64.504 C 232.85,70.698 239.427,119.969 239.438,120.046 C 238.233,120.098 237.087,120.243 236.005,120.419 C 233.815,120.773 232.317,120.313 231.024,119.76 C 225,78.602 245.257,61.75 245.257,61.75 C 214.3,68.025 222.79,120.42 222.79,120.42 C 218.162,123.866 215.031,127.341 212.185,130.976 C 210.994,116.931 205.576,105.32 204.491,105.32 C 203.27,105.32 197.781,107.973 197.781,120.013 C 197.781,128.675 204.938,133.323 208.953,135.249 C 205.891,139.378 202.623,143.763 197.578,148.582 C 187.98,157.749 186.544,157.819 179.685,159.806 C 173.682,161.545 171.637,163.897 173.788,170.009 C 176.838,178.676 188.831,164.292 191.274,172.254 C 193.351,179.024 179.006,176.471 177.786,180.145 C 176.566,183.818 182.532,187.764 196.764,187.764 C 210.996,187.764 215.673,185.723 215.673,185.723 C 215.673,185.723 219.536,208.579 205.506,231.639 C 191.476,254.7 195.298,276.011 195.298,276.011 C 194.432,277.649 193.698,279.488 193.103,281.637 C 188.095,299.732 196.051,318.472 204.896,325.512 C 212.734,331.751 231.532,333.114 231.532,333.114 C 230.312,341.685 229.855,362.346 229.855,378.418 C 229.855,387.448 230.922,396.478 232.905,400.151 C 236.062,406.001 233.972,438.464 233.972,438.464 C 233.972,438.464 227.263,443.464 223.806,453.667 C 220.35,463.87 220.96,473.667 226.449,473.667 C 234.989,473.667 242.512,462.035 242.512,452.443 C 242.512,442.85 248.307,440.709 248.307,440.709 C 241.902,417.752 255.728,335.919 257.355,332.45 C 258.981,328.98 266.504,330.409 278.094,326.941 C 297.046,321.268 332.383,308.369 353.529,303.88 C 370.418,300.295 377.928,305.513 385.045,320.41 C 398.413,348.396 411.884,362.449 416.358,369.795 C 420.832,377.142 418.798,417.344 418.798,429.588 C 418.798,441.832 407.615,450.198 404.361,453.464 C 401.108,456.73 393.992,471.626 403.954,471.626 C 413.917,471.626 423.474,461.627 424.695,452.238 C 425.916,442.849 434.453,442.444 434.453,442.444 C 428.558,436.527 431.201,346.938 431.201,346.938 z"
       id="path2515" />
    <path
       style="fill:none;stroke:#ffffff;stroke-width:2.25;stroke-linecap:round;stroke-linejoin:round"
       d="M 195.299,276.01 C 198.872,269.253 204.688,265.928 212.216,258.372"
       id="path2517" />
    <path
       style="fill:#ffffff"
       d="M 226.45,183.886 C 226.45,183.886 240.988,180.519 247.8,166.54 C 247.8,166.54 249.038,164.175 250.839,165.363 C 251.605,165.868 251.993,167.366 250.443,172.051 C 248.68,177.379 248.206,187.356 233.973,187.356 C 229.907,187.356 223.618,184.561 226.45,183.886 z"
       id="path2519" />
    <path
       style="fill:#ffffff"
       d="M 217.91,146.746 C 217.91,146.746 221.367,137.358 232.956,144.501 C 232.957,144.501 228.825,155.626 217.91,146.746 z"
       id="path2521" />
    <path
       style="fill:none;stroke:#ffffff;stroke-width:2.25;stroke-linecap:round;stroke-linejoin:round"
       d="M 358.241,303.102 C 358.307,303.321 360.05,308.931 365.882,308.931 C 371.608,308.931 373.813,306.074 373.969,305.861 C 369.853,303.194 364.853,302.298 358.241,303.102 z"
       id="path2523" />
    <path
       style="fill:none;stroke:#ffffff;stroke-width:2.25;stroke-linecap:round;stroke-linejoin:round"
       d="M 358.241,303.102 C 356.794,303.279 355.143,303.538 353.529,303.88 C 349.666,304.7 345.324,305.804 340.698,307.09 C 340.941,307.046 353.177,304.83 360.18,306.413 C 358.805,304.89 358.277,303.219 358.241,303.102 z"
       id="path2525" />
    <path
       style="fill:none;stroke:#ffffff;stroke-width:2.25;stroke-linecap:round;stroke-linejoin:round"
       d="M 410.563,457.545 C 410.563,457.545 403.398,462.348 401.643,471.272"
       id="path2527" />
    <path
       style="fill:none;stroke:#ffffff;stroke-width:2.25;stroke-linecap:round;stroke-linejoin:round"
       d="M 299.14,449.688 C 299.14,449.688 291.054,456.375 290.197,464.947"
       id="path2529" />
    <path
       style="fill:none;stroke:#ffffff;stroke-width:2.25;stroke-linecap:round;stroke-linejoin:round"
       d="M 229.703,459.382 C 229.703,459.382 226.45,464.382 226.45,473.667"
       id="path2531" />
    <path
       style="fill:none;stroke:#ffffff;stroke-width:2.25;stroke-linecap:round;stroke-linejoin:round"
       d="M 199.233,455.281 C 199.233,455.281 195.029,460.846 195.029,469.084"
       id="path2533" />
  </g>
  <g
     inkscape:groupmode="layer"
     id="layer3"
     inkscape:label="Reflet final"
     style="display:inline"
     sodipodi:insensitive="true">
    <path
       style="fill:url(#radialGradient3236);fill-opacity:1"
       d="M 1.5,1.5 L 1.5,460.3679 C 1.5,626.67854 135.81454,761.5 301.49993,761.5 C 467.1854,761.5 601.5,626.67854 601.5,460.3679 L 601.5,1.5 L 1.5,1.5 z "
       id="path2346" />
  </g>
  <g
     inkscape:groupmode="layer"
     id="layer4"
     inkscape:label="Contour final"
     style="display:inline"
     sodipodi:insensitive="true">
    <path
       style="fill:none;fill-opacity:1;stroke:#000000;stroke-width:3;stroke-miterlimit:4;stroke-dasharray:none;stroke-opacity:1"
       d="M 1.5,1.5 L 1.5,460.36794 C 1.5,626.67854 135.81454,761.5 301.49993,761.5 C 467.1854,761.5 601.5,626.67854 601.5,460.36794 L 601.5,1.5 L 1.5,1.5 z "
       id="path3239" />
  </g>
</svg>
